svg/OSM-icons/highway #a4a4a4 °ffffff !label=enhighways,deStrassen/18062;highway=turning_loop;!label=enturning loop,deWende- schleife.svg

<svg xmlns="http://www.w3.org/2000/svg" viewBox="0 0 580 580" enable-background="new 0 0 580 580"><path fill="#111" stroke="#eee" stroke-width="3.408" d="m66.28 1.768c-41.34 0-64.57 21.371-64.57 65.04v450.12c0 40.844 20.894 62.23 62.19 62.23h452.02c41.31 0 62.23-20.316 62.23-62.23v-450.12c0-42.601-20.923-65.04-63.52-65.04-.003 0-448.49-.143-448.35 0z"/><path fill="#fff" d="m290 43c-4.547 0-9.05.196-13.5.563-83.43 6.862-149 76.74-149 161.94v331.5h97.18 51.823v-169.56c4.452.366 8.953.563 13.5.563 89.75 0 162.5-72.75 162.5-162.5s-72.75-162.5-162.5-162.5m0 237c-41.15 0-74.5-33.35-74.5-74.5s33.35-74.5 74.5-74.5 74.5 33.35 74.5 74.5-33.35 74.5-74.5 74.5"/></svg>

<?xml version="1.0" encoding="utf-8"?>
<!-- Generator: Adobe Illustrator 15.0.0, SVG Export Plug-In . SVG Version: 6.00 Build 0)  -->
<!DOCTYPE svg PUBLIC "-//W3C//DTD SVG 1.1//EN" "http://www.w3.org/Graphics/SVG/1.1/DTD/svg11.dtd">
<svg version="1.1" xmlns="http://www.w3.org/2000/svg" xmlns:xlink="http://www.w3.org/1999/xlink" x="0px" y="0px" width="580px"
	 height="580px" viewBox="0 0 580 580" enable-background="new 0 0 580 580" xml:space="preserve">
<g id="Layer_2">
	<g id="g1327">
		<path id="path1329" fill="#111111" stroke="#EEEEEE" stroke-width="3.408" d="M66.275,1.768
			c-41.335,0-64.571,21.371-64.571,65.036v450.123c0,40.844,20.894,62.229,62.192,62.229H515.92
			c41.307,0,62.229-20.316,62.229-62.229V66.804c0-42.601-20.923-65.036-63.522-65.036C514.624,1.768,66.133,1.625,66.275,1.768z"/>
	</g>
</g>
<g id="svg2" inkscape:output_extension="org.inkscape.output.svg.inkscape" inkscape:version="0.46" sodipodi:docname="waste_bin.svg" sodipodi:version="0.32" xmlns:inkscape="http://www.inkscape.org/namespaces/inkscape" xmlns:rdf="http://www.w3.org/1999/02/22-rdf-syntax-ns#" xmlns:svg="http://www.w3.org/2000/svg" xmlns:sodipodi="http://sodipodi.sourceforge.net/DTD/sodipodi-0.dtd" xmlns:cc="http://creativecommons.org/ns#" xmlns:dc="http://purl.org/dc/elements/1.1/">
	<path fill="#FFFFFF" d="M290,43c-4.547,0-9.048,0.196-13.5,0.563c-83.429,6.862-149,76.738-149,161.938V537h97.177H276.5V367.438
		c4.452,0.366,8.953,0.563,13.5,0.563c89.746,0,162.5-72.754,162.5-162.5S379.746,43,290,43z M290,280
		c-41.146,0-74.5-33.355-74.5-74.5S248.854,131,290,131s74.5,33.355,74.5,74.5S331.146,280,290,280z"/>
</g>
</svg>
